ukui-icon-theme-default/scalable/actions/view-filter-symbolic.svg

<?xml version="1.0" encoding="iso-8859-1"?>
<!-- Generator: Adobe Illustrator 24.0.0, SVG Export Plug-In . SVG Version: 6.00 Build 0)  -->
<svg version="1.1" id="v" xmlns="http://www.w3.org/2000/svg" xmlns:xlink="http://www.w3.org/1999/xlink" x="0px" y="0px"
	 viewBox="0 0 16 16" style="enable-background:new 0 0 16 16;" xml:space="preserve">
<title>16</title>
<g id="_16">
	<line style="fill:none;stroke:#808080;stroke-linecap:round;stroke-miterlimit:10;" x1="7.5" y1="13.5" x2="7.5" y2="2.5"/>
	<path style="fill:#808080;" d="M14,3v3h-3V3H14 M14,2h-3c-0.552,0-1,0.448-1,1v3c0,0.552,0.448,1,1,1h3c0.552,0,1-0.448,1-1V3
		C15,2.448,14.552,2,14,2z"/>
	<path style="fill:#808080;" d="M14,10v3h-3v-3H14 M14,9h-3c-0.552,0-1,0.448-1,1v3c0,0.552,0.448,1,1,1h3c0.552,0,1-0.448,1-1v-3
		C15,9.448,14.552,9,14,9z"/>
	<line style="fill:none;stroke:#808080;stroke-linecap:round;stroke-miterlimit:10;" x1="1.5" y1="12.5" x2="4.5" y2="12.5"/>
	<line style="fill:none;stroke:#808080;stroke-linecap:round;stroke-miterlimit:10;" x1="1.5" y1="9.5" x2="4.5" y2="9.5"/>
	<line style="fill:none;stroke:#808080;stroke-linecap:round;stroke-miterlimit:10;" x1="1.5" y1="6.5" x2="4.5" y2="6.5"/>
	<line style="fill:none;stroke:#808080;stroke-linecap:round;stroke-miterlimit:10;" x1="1.5" y1="3.5" x2="4.5" y2="3.5"/>
</g>
</svg>

<svg id="v" xmlns="http://www.w3.org/2000/svg" viewBox="0 0 16 16"><defs><style>.cls-1{fill:none;stroke:gray;stroke-linecap:round;stroke-miterlimit:10;}.cls-2{fill:gray;}</style></defs><title>16</title><g id="_16" data-name="16"><line class="cls-1" x1="7.5" y1="13.5" x2="7.5" y2="2.5"/><path class="cls-2" d="M14,3V6H11V3h3m0-1H11a1,1,0,0,0-1,1V6a1,1,0,0,0,1,1h3a1,1,0,0,0,1-1V3a1,1,0,0,0-1-1Z"/><path class="cls-2" d="M14,10v3H11V10h3m0-1H11a1,1,0,0,0-1,1v3a1,1,0,0,0,1,1h3a1,1,0,0,0,1-1V10a1,1,0,0,0-1-1Z"/><line class="cls-1" x1="1.5" y1="12.5" x2="4.5" y2="12.5"/><line class="cls-1" x1="1.5" y1="9.5" x2="4.5" y2="9.5"/><line class="cls-1" x1="1.5" y1="6.5" x2="4.5" y2="6.5"/><line class="cls-1" x1="1.5" y1="3.5" x2="4.5" y2="3.5"/></g></svg>
